Newaita-dark/apps/48/com.github.panosx2.brightness.svg

<svg height="48" viewBox="0 0 48 48" width="48" xmlns="http://www.w3.org/2000/svg" xmlns:xlink="http://www.w3.org/1999/xlink"><linearGradient id="a"><stop offset="0" stop-opacity=".313726"/><stop offset=".222222" stop-opacity=".27451"/><stop offset="1" stop-opacity="0"/></linearGradient><radialGradient id="b" cx="450.908936" cy="189.579361" gradientTransform="matrix(.00000026 -.117199 -.210958 -.00000015 63.807881 95.392994)" gradientUnits="userSpaceOnUse" r="21.166656" xlink:href="#a"/><radialGradient id="c" cx="450.908936" cy="189.579361" gradientTransform="matrix(-.00000026 .117199 .210958 .00000015 -16.178331 -11.291223)" gradientUnits="userSpaceOnUse" r="21.166656" xlink:href="#a"/><radialGradient id="d" cx="450.908936" cy="189.579361" gradientTransform="matrix(-.00000026 -.117199 .210958 -.00000015 -16.178331 95.392994)" gradientUnits="userSpaceOnUse" r="21.166656" xlink:href="#a"/><radialGradient id="e" cx="450.908936" cy="189.579361" gradientTransform="matrix(.00000026 .117199 -.210958 .00000015 63.807878 -11.291224)" gradientUnits="userSpaceOnUse" r="21.166656" xlink:href="#a"/><linearGradient id="f" gradientTransform="matrix(.00286287 0 0 .093759 23.083818 20.158175)" gradientUnits="userSpaceOnUse" x1="255.323059" x2="255.323044" y1="233.5" y2="254.666656"><stop offset="0" stop-opacity=".27451"/><stop offset="1" stop-opacity="0"/></linearGradient><linearGradient id="g"><stop offset="0" stop-color="#424242"/><stop offset="1" stop-color="#616161"/></linearGradient><linearGradient id="h" gradientUnits="userSpaceOnUse" x1="23.814816" x2="23.814816" xlink:href="#g" y1="42.05096580616" y2="4.34417306195"/><linearGradient id="i" gradientUnits="userSpaceOnUse" x1="27.7839180001" x2="27.7839180001" xlink:href="#g" y1="37.08948724995" y2="9.30557075"/><linearGradient id="j" gradientUnits="userSpaceOnUse" x1="400" x2="960" y1="935.117188" y2="935.117188"><stop offset="0" stop-color="#eee"/><stop offset="1" stop-color="#e0e0e0"/></linearGradient><path d="m24.3125 42.050781h3.96875v-1.984375h-3.96875zm0 0" fill="url(#b)"/><path d="m23.320312 42.050781h-3.972656v1.984375h3.972656zm0 0" fill="url(#c)"/><path d="m23.320312 42.050781h-3.972656v-1.984375h3.972656zm0 0" fill="url(#d)"/><path d="m24.3125 42.050781h3.96875v1.984375h-3.96875zm0 0" fill="url(#e)"/><path d="m23.320312 41.554688h.992188v2.480468h-.992188zm0 0" fill="url(#f)"/><path d="m23.816406 4.371094c-.507812 0-1.015625.195312-1.40625.582031l-4.347656 4.351563h-6.15625c-1.097656 0-1.984375.886718-1.984375 1.984374v6.152344l-4.351563 4.351563c-.777343.777343-.777343 2.03125 0 2.808593l4.351563 4.351563v6.152344c0 1.097656.886719 1.984375 1.984375 1.984375h6.152344l4.351562 4.351562c.777344.777344 2.03125.777344 2.808594 0l4.351562-4.351562h6.152344c1.097656 0 1.984375-.886719 1.984375-1.984375v-6.152344l4.351563-4.351563c.777344-.777343.777344-2.03125 0-2.808593l-4.351563-4.351563v-6.152344c0-1.097656-.886719-1.984374-1.984375-1.984374h-6.152344l-4.351562-4.351563c-.390625-.386719-.898438-.582031-1.402344-.582031zm0 0" fill="url(#h)"/><path d="m23.816406 9.304688c7.671875 0 13.890625 6.21875 13.890625 13.894531 0 7.671875-6.21875 13.890625-13.890625 13.890625-7.675781 0-13.894531-6.21875-13.894531-13.890625 0-7.675781 6.21875-13.894531 13.894531-13.894531zm0 0" fill="url(#i)"/><path d="m960.065849 375.082311c-310.364079 0-560.104022 249.739944-560.104022 560.104023 0 310.206613 249.739943 559.946557 560.104022 559.946557zm0 0" fill="url(#j)" stroke="#212121" stroke-linecap="round" stroke-linejoin="round" stroke-width="11.338583" transform="scale(.0248071)"/><path d="m23.816406 4.371094c-.507812 0-1.015625.195312-1.40625.582031l-4.347656 4.351563h-6.15625c-1.097656 0-1.984375.886718-1.984375 1.984374v.46875c0-1.097656.886719-1.984374 1.984375-1.984374h6.15625l4.347656-4.351563c.390625-.386719.898438-.582031 1.40625-.582031.503906 0 1.011719.195312 1.402344.582031l4.351562 4.351563h6.152344c1.097656 0 1.984375.886718 1.984375 1.984374v-.46875c0-1.097656-.886719-1.984374-1.984375-1.984374h-6.152344l-4.351562-4.351563c-.390625-.386719-.898438-.582031-1.402344-.582031zm-13.894531 13.070312-4.351563 4.351563c-.445312.449219-.636718 1.054687-.566406 1.640625.050782-.429688.238282-.84375.566406-1.171875l4.351563-4.351563zm27.785156 0v.46875l4.351563 4.351563c.328125.328125.515625.742187.566406 1.171875.070312-.585938-.117188-1.191406-.566406-1.640625zm0 0" fill="#fff" fill-opacity=".392157"/><path d="m23.816406 42.023438c-.507812 0-1.015625-.195313-1.40625-.582032l-4.347656-4.351562h-6.15625c-1.097656 0-1.984375-.886719-1.984375-1.984375v-.46875c0 1.097656.886719 1.984375 1.984375 1.984375h6.15625l4.347656 4.351562c.390625.386719.898438.582032 1.40625.582032.503906 0 1.011719-.195313 1.402344-.582032l4.351562-4.351562h6.152344c1.097656 0 1.984375-.886719 1.984375-1.984375v.46875c0 1.097656-.886719 1.984375-1.984375 1.984375h-6.152344l-4.351562 4.351562c-.390625.386719-.898438.582032-1.402344.582032zm-13.894531-13.070313-4.351563-4.351563c-.445312-.449218-.636718-1.054687-.566406-1.636718.050782.425781.238282.839844.566406 1.167968l4.351563 4.351563zm27.785156 0v-.46875l4.351563-4.351563c.328125-.328124.515625-.742187.566406-1.167968.070312.582031-.117188 1.1875-.566406 1.636718zm0 0" fill-opacity=".235294"/><path d="m23.816406 4.230469c-.542968 0-1.089844.210937-1.503906.625l-4.308594 4.308593h-6.097656c-1.171875 0-2.125.949219-2.125 2.125v6.097657l-4.308594 4.308593c-.832031.832032-.832031 2.175782 0 3.003907l4.308594 4.3125v6.09375c0 1.175781.953125 2.125 2.125 2.125h6.097656l4.308594 4.308593c.832031.832032 2.175781.832032 3.003906 0l4.3125-4.308593h6.09375c1.175782 0 2.125-.949219 2.125-2.125v-6.09375l4.308594-4.3125c.832031-.828125.832031-2.171875 0-3.003907l-4.308594-4.308593v-6.097657c0-1.175781-.949218-2.125-2.125-2.125h-6.09375l-4.3125-4.308593c-.414062-.414063-.957031-.625-1.5-.625zm0 .28125c.46875 0 .941406.179687 1.300782.542969l4.351562 4.351562c.027344.023438.0625.039062.101562.039062h6.152344c1.023438 0 1.84375.820313 1.84375 1.84375v6.152344c0 .039063.015625.074219.039063.101563l4.351562 4.351562c.726563.722657.726563 1.882813 0 2.605469l-4.351562 4.351562c-.023438.027344-.039063.0625-.039063.101563v6.152344c0 1.023437-.820312 1.84375-1.84375 1.84375h-6.152344c-.039062 0-.074218.015625-.101562.039062l-4.351562 4.351563c-.722657.726562-1.882813.726562-2.605469 0l-4.351563-4.351563c-.027344-.023437-.0625-.039062-.101562-.039062h-6.152344c-1.023438 0-1.84375-.820313-1.84375-1.84375v-6.152344c0-.039063-.015625-.074219-.039062-.101563l-4.351563-4.351562c-.722656-.722656-.722656-1.882812 0-2.605469l4.351563-4.351562c.023437-.027344.039062-.0625.039062-.101563v-6.152344c0-1.023437.820312-1.84375 1.84375-1.84375h6.15625c.035156 0 .070312-.015624.097656-.039062l4.351563-4.351562c.359375-.363282.832031-.542969 1.304687-.542969zm0 0" fill="#212121" fill-opacity=".963235"/><path d="m23.816406 9.304688c-7.699218 0-13.894531 6.195312-13.894531 13.894531 0 .082031 0 .164062.003906.246093.132813-7.582031 6.277344-13.644531 13.890625-13.644531 7.613282 0 13.757813 6.0625 13.886719 13.644531.003906-.082031.003906-.164062.003906-.246093 0-7.699219-6.195312-13.894531-13.890625-13.894531zm0 0" fill="#fff" fill-opacity=".392157"/><path d="m23.816406 37.585938c-7.699218 0-13.894531-6.195313-13.894531-13.890626 0-.085937 0-.167968.003906-.25.132813 7.582032 6.277344 13.644532 13.890625 13.644532 7.613282 0 13.757813-6.0625 13.886719-13.644532.003906.082032.003906.164063.003906.25 0 7.695313-6.195312 13.890626-13.890625 13.890626zm0 0" fill-opacity=".235294"/><path d="m254.017409-115.759477c81.82552 0 148.152519 66.326999 148.152519 148.194181 0 81.82552-66.326999 148.152519-148.152519 148.152519-81.867182 0-148.194181-66.326999-148.194181-148.152519 0-81.867182 66.326999-148.194181 148.194181-148.194181zm0 0" fill="none" stroke="#212121" stroke-linecap="round" stroke-linejoin="round" stroke-width="2.546624" transform="matrix(.093759 0 0 .093759 0 20.158175)"/></svg>

<?xml version="1.0" encoding="UTF-8"?>
<svg xmlns="http://www.w3.org/2000/svg" xmlns:xlink="http://www.w3.org/1999/xlink" width="48px" height="48px" viewBox="0 0 48 48" version="1.1">
<defs>
<radialGradient id="radial0" gradientUnits="userSpaceOnUse" cx="450.908936" cy="189.579361" fx="450.908936" fy="189.579361" r="21.166656" gradientTransform="matrix(0.000000261256,-0.117199,-0.210958,-0.000000152308,63.807881,95.392994)">
<stop offset="0" style="stop-color:rgb(0%,0%,0%);stop-opacity:0.313726;"/>
<stop offset="0.222222" style="stop-color:rgb(0%,0%,0%);stop-opacity:0.27451;"/>
<stop offset="1" style="stop-color:rgb(0%,0%,0%);stop-opacity:0;"/>
</radialGradient>
<radialGradient id="radial1" gradientUnits="userSpaceOnUse" cx="450.908936" cy="189.579361" fx="450.908936" fy="189.579361" r="21.166656" gradientTransform="matrix(-0.000000261256,0.117199,0.210958,0.000000152308,-16.178331,-11.291223)">
<stop offset="0" style="stop-color:rgb(0%,0%,0%);stop-opacity:0.313726;"/>
<stop offset="0.222222" style="stop-color:rgb(0%,0%,0%);stop-opacity:0.27451;"/>
<stop offset="1" style="stop-color:rgb(0%,0%,0%);stop-opacity:0;"/>
</radialGradient>
<radialGradient id="radial2" gradientUnits="userSpaceOnUse" cx="450.908936" cy="189.579361" fx="450.908936" fy="189.579361" r="21.166656" gradientTransform="matrix(-0.000000261256,-0.117199,0.210958,-0.000000152308,-16.178331,95.392994)">
<stop offset="0" style="stop-color:rgb(0%,0%,0%);stop-opacity:0.313726;"/>
<stop offset="0.222222" style="stop-color:rgb(0%,0%,0%);stop-opacity:0.27451;"/>
<stop offset="1" style="stop-color:rgb(0%,0%,0%);stop-opacity:0;"/>
</radialGradient>
<radialGradient id="radial3" gradientUnits="userSpaceOnUse" cx="450.908936" cy="189.579361" fx="450.908936" fy="189.579361" r="21.166656" gradientTransform="matrix(0.000000261256,0.117199,-0.210958,0.000000152308,63.807878,-11.291224)">
<stop offset="0" style="stop-color:rgb(0%,0%,0%);stop-opacity:0.313726;"/>
<stop offset="0.222222" style="stop-color:rgb(0%,0%,0%);stop-opacity:0.27451;"/>
<stop offset="1" style="stop-color:rgb(0%,0%,0%);stop-opacity:0;"/>
</radialGradient>
<linearGradient id="linear0" gradientUnits="userSpaceOnUse" x1="255.323059" y1="233.5" x2="255.323044" y2="254.666656" gradientTransform="matrix(0.00286287,0,0,0.093759,23.083818,20.158175)">
<stop offset="0" style="stop-color:rgb(0%,0%,0%);stop-opacity:0.27451;"/>
<stop offset="1" style="stop-color:rgb(0%,0%,0%);stop-opacity:0;"/>
</linearGradient>
<linearGradient id="linear1" gradientUnits="userSpaceOnUse" x1="960" y1="1695.118164" x2="960" y2="175.118134" gradientTransform="matrix(0.0248071,0,0,0.0248071,0,0.00000000000000282)">
<stop offset="0" style="stop-color:rgb(25.882354%,25.882354%,25.882354%);stop-opacity:1;"/>
<stop offset="1" style="stop-color:rgb(38.039216%,38.039216%,38.039216%);stop-opacity:1;"/>
</linearGradient>
<linearGradient id="linear2" gradientUnits="userSpaceOnUse" x1="296.333344" y1="180.583328" x2="296.333344" y2="-115.75" gradientTransform="matrix(0.093759,0,0,0.093759,0,20.158175)">
<stop offset="0" style="stop-color:rgb(25.882354%,25.882354%,25.882354%);stop-opacity:1;"/>
<stop offset="1" style="stop-color:rgb(38.039216%,38.039216%,38.039216%);stop-opacity:1;"/>
</linearGradient>
<linearGradient id="linear3" gradientUnits="userSpaceOnUse" x1="400" y1="935.117188" x2="960" y2="935.117188" gradientTransform="matrix(1,0,0,1,0,-0)">
<stop offset="0" style="stop-color:rgb(93.333334%,93.333334%,93.333334%);stop-opacity:1;"/>
<stop offset="1" style="stop-color:rgb(87.843138%,87.843138%,87.843138%);stop-opacity:1;"/>
</linearGradient>
</defs>
<g id="surface1">
<path style=" stroke:none;fill-rule:nonzero;fill:url(#radial0);" d="M 24.3125 42.050781 L 28.28125 42.050781 L 28.28125 40.066406 L 24.3125 40.066406 Z M 24.3125 42.050781 "/>
<path style=" stroke:none;fill-rule:nonzero;fill:url(#radial1);" d="M 23.320312 42.050781 L 19.347656 42.050781 L 19.347656 44.035156 L 23.320312 44.035156 Z M 23.320312 42.050781 "/>
<path style=" stroke:none;fill-rule:nonzero;fill:url(#radial2);" d="M 23.320312 42.050781 L 19.347656 42.050781 L 19.347656 40.066406 L 23.320312 40.066406 Z M 23.320312 42.050781 "/>
<path style=" stroke:none;fill-rule:nonzero;fill:url(#radial3);" d="M 24.3125 42.050781 L 28.28125 42.050781 L 28.28125 44.035156 L 24.3125 44.035156 Z M 24.3125 42.050781 "/>
<path style=" stroke:none;fill-rule:nonzero;fill:url(#linear0);" d="M 23.320312 41.554688 L 24.3125 41.554688 L 24.3125 44.035156 L 23.320312 44.035156 Z M 23.320312 41.554688 "/>
<path style=" stroke:none;fill-rule:nonzero;fill:url(#linear1);" d="M 23.816406 4.371094 C 23.308594 4.371094 22.800781 4.566406 22.410156 4.953125 L 18.0625 9.304688 L 11.90625 9.304688 C 10.808594 9.304688 9.921875 10.191406 9.921875 11.289062 L 9.921875 17.441406 L 5.570312 21.792969 C 4.792969 22.570312 4.792969 23.824219 5.570312 24.601562 L 9.921875 28.953125 L 9.921875 35.105469 C 9.921875 36.203125 10.808594 37.089844 11.90625 37.089844 L 18.058594 37.089844 L 22.410156 41.441406 C 23.1875 42.21875 24.441406 42.21875 25.21875 41.441406 L 29.570312 37.089844 L 35.722656 37.089844 C 36.820312 37.089844 37.707031 36.203125 37.707031 35.105469 L 37.707031 28.953125 L 42.058594 24.601562 C 42.835938 23.824219 42.835938 22.570312 42.058594 21.792969 L 37.707031 17.441406 L 37.707031 11.289062 C 37.707031 10.191406 36.820312 9.304688 35.722656 9.304688 L 29.570312 9.304688 L 25.21875 4.953125 C 24.828125 4.566406 24.320312 4.371094 23.816406 4.371094 Z M 23.816406 4.371094 "/>
<path style=" stroke:none;fill-rule:nonzero;fill:url(#linear2);" d="M 23.816406 9.304688 C 31.488281 9.304688 37.707031 15.523438 37.707031 23.199219 C 37.707031 30.871094 31.488281 37.089844 23.816406 37.089844 C 16.140625 37.089844 9.921875 30.871094 9.921875 23.199219 C 9.921875 15.523438 16.140625 9.304688 23.816406 9.304688 Z M 23.816406 9.304688 "/>
<path style="fill-rule:nonzero;fill:url(#linear3);stroke-width:11.338583;stroke-linecap:round;stroke-linejoin:round;stroke:rgb(12.941177%,12.941177%,12.941177%);stroke-opacity:1;stroke-miterlimit:4;" d="M 960.065849 375.082311 C 649.70177 375.082311 399.961827 624.822255 399.961827 935.186334 C 399.961827 1245.392947 649.70177 1495.132891 960.065849 1495.132891 Z M 960.065849 375.082311 " transform="matrix(0.0248071,0,0,0.0248071,0,0)"/>
<path style=" stroke:none;fill-rule:nonzero;fill:rgb(100%,100%,100%);fill-opacity:0.392157;" d="M 23.816406 4.371094 C 23.308594 4.371094 22.800781 4.566406 22.410156 4.953125 L 18.0625 9.304688 L 11.90625 9.304688 C 10.808594 9.304688 9.921875 10.191406 9.921875 11.289062 L 9.921875 11.757812 C 9.921875 10.660156 10.808594 9.773438 11.90625 9.773438 L 18.0625 9.773438 L 22.410156 5.421875 C 22.800781 5.035156 23.308594 4.839844 23.816406 4.839844 C 24.320312 4.839844 24.828125 5.035156 25.21875 5.421875 L 29.570312 9.773438 L 35.722656 9.773438 C 36.820312 9.773438 37.707031 10.660156 37.707031 11.757812 L 37.707031 11.289062 C 37.707031 10.191406 36.820312 9.304688 35.722656 9.304688 L 29.570312 9.304688 L 25.21875 4.953125 C 24.828125 4.566406 24.320312 4.371094 23.816406 4.371094 Z M 9.921875 17.441406 L 5.570312 21.792969 C 5.125 22.242188 4.933594 22.847656 5.003906 23.433594 C 5.054688 23.003906 5.242188 22.589844 5.570312 22.261719 L 9.921875 17.910156 Z M 37.707031 17.441406 L 37.707031 17.910156 L 42.058594 22.261719 C 42.386719 22.589844 42.574219 23.003906 42.625 23.433594 C 42.695312 22.847656 42.507812 22.242188 42.058594 21.792969 Z M 37.707031 17.441406 "/>
<path style=" stroke:none;fill-rule:nonzero;fill:rgb(0%,0%,0%);fill-opacity:0.235294;" d="M 23.816406 42.023438 C 23.308594 42.023438 22.800781 41.828125 22.410156 41.441406 L 18.0625 37.089844 L 11.90625 37.089844 C 10.808594 37.089844 9.921875 36.203125 9.921875 35.105469 L 9.921875 34.636719 C 9.921875 35.734375 10.808594 36.621094 11.90625 36.621094 L 18.0625 36.621094 L 22.410156 40.972656 C 22.800781 41.359375 23.308594 41.554688 23.816406 41.554688 C 24.320312 41.554688 24.828125 41.359375 25.21875 40.972656 L 29.570312 36.621094 L 35.722656 36.621094 C 36.820312 36.621094 37.707031 35.734375 37.707031 34.636719 L 37.707031 35.105469 C 37.707031 36.203125 36.820312 37.089844 35.722656 37.089844 L 29.570312 37.089844 L 25.21875 41.441406 C 24.828125 41.828125 24.320312 42.023438 23.816406 42.023438 Z M 9.921875 28.953125 L 5.570312 24.601562 C 5.125 24.152344 4.933594 23.546875 5.003906 22.964844 C 5.054688 23.390625 5.242188 23.804688 5.570312 24.132812 L 9.921875 28.484375 Z M 37.707031 28.953125 L 37.707031 28.484375 L 42.058594 24.132812 C 42.386719 23.804688 42.574219 23.390625 42.625 22.964844 C 42.695312 23.546875 42.507812 24.152344 42.058594 24.601562 Z M 37.707031 28.953125 "/>
<path style=" stroke:none;fill-rule:nonzero;fill:rgb(12.941177%,12.941177%,12.941177%);fill-opacity:0.963235;" d="M 23.816406 4.230469 C 23.273438 4.230469 22.726562 4.441406 22.3125 4.855469 L 18.003906 9.164062 L 11.90625 9.164062 C 10.734375 9.164062 9.78125 10.113281 9.78125 11.289062 L 9.78125 17.386719 L 5.472656 21.695312 C 4.640625 22.527344 4.640625 23.871094 5.472656 24.699219 L 9.78125 29.011719 L 9.78125 35.105469 C 9.78125 36.28125 10.734375 37.230469 11.90625 37.230469 L 18.003906 37.230469 L 22.3125 41.539062 C 23.144531 42.371094 24.488281 42.371094 25.316406 41.539062 L 29.628906 37.230469 L 35.722656 37.230469 C 36.898438 37.230469 37.847656 36.28125 37.847656 35.105469 L 37.847656 29.011719 L 42.15625 24.699219 C 42.988281 23.871094 42.988281 22.527344 42.15625 21.695312 L 37.847656 17.386719 L 37.847656 11.289062 C 37.847656 10.113281 36.898438 9.164062 35.722656 9.164062 L 29.628906 9.164062 L 25.316406 4.855469 C 24.902344 4.441406 24.359375 4.230469 23.816406 4.230469 Z M 23.816406 4.511719 C 24.285156 4.511719 24.757812 4.691406 25.117188 5.054688 L 29.46875 9.40625 C 29.496094 9.429688 29.53125 9.445312 29.570312 9.445312 L 35.722656 9.445312 C 36.746094 9.445312 37.566406 10.265625 37.566406 11.289062 L 37.566406 17.441406 C 37.566406 17.480469 37.582031 17.515625 37.605469 17.542969 L 41.957031 21.894531 C 42.683594 22.617188 42.683594 23.777344 41.957031 24.5 L 37.605469 28.851562 C 37.582031 28.878906 37.566406 28.914062 37.566406 28.953125 L 37.566406 35.105469 C 37.566406 36.128906 36.746094 36.949219 35.722656 36.949219 L 29.570312 36.949219 C 29.53125 36.949219 29.496094 36.964844 29.46875 36.988281 L 25.117188 41.339844 C 24.394531 42.066406 23.234375 42.066406 22.511719 41.339844 L 18.160156 36.988281 C 18.132812 36.964844 18.097656 36.949219 18.058594 36.949219 L 11.90625 36.949219 C 10.882812 36.949219 10.0625 36.128906 10.0625 35.105469 L 10.0625 28.953125 C 10.0625 28.914062 10.046875 28.878906 10.023438 28.851562 L 5.671875 24.5 C 4.949219 23.777344 4.949219 22.617188 5.671875 21.894531 L 10.023438 17.542969 C 10.046875 17.515625 10.0625 17.480469 10.0625 17.441406 L 10.0625 11.289062 C 10.0625 10.265625 10.882812 9.445312 11.90625 9.445312 L 18.0625 9.445312 C 18.097656 9.445312 18.132812 9.429688 18.160156 9.40625 L 22.511719 5.054688 C 22.871094 4.691406 23.34375 4.511719 23.816406 4.511719 Z M 23.816406 4.511719 "/>
<path style=" stroke:none;fill-rule:nonzero;fill:rgb(100%,100%,100%);fill-opacity:0.392157;" d="M 23.816406 9.304688 C 16.117188 9.304688 9.921875 15.5 9.921875 23.199219 C 9.921875 23.28125 9.921875 23.363281 9.925781 23.445312 C 10.058594 15.863281 16.203125 9.800781 23.816406 9.800781 C 31.429688 9.800781 37.574219 15.863281 37.703125 23.445312 C 37.707031 23.363281 37.707031 23.28125 37.707031 23.199219 C 37.707031 15.5 31.511719 9.304688 23.816406 9.304688 Z M 23.816406 9.304688 "/>
<path style=" stroke:none;fill-rule:nonzero;fill:rgb(0%,0%,0%);fill-opacity:0.235294;" d="M 23.816406 37.585938 C 16.117188 37.585938 9.921875 31.390625 9.921875 23.695312 C 9.921875 23.609375 9.921875 23.527344 9.925781 23.445312 C 10.058594 31.027344 16.203125 37.089844 23.816406 37.089844 C 31.429688 37.089844 37.574219 31.027344 37.703125 23.445312 C 37.707031 23.527344 37.707031 23.609375 37.707031 23.695312 C 37.707031 31.390625 31.511719 37.585938 23.816406 37.585938 Z M 23.816406 37.585938 "/>
<path style="fill:none;stroke-width:2.546624;stroke-linecap:round;stroke-linejoin:round;stroke:rgb(12.941177%,12.941177%,12.941177%);stroke-opacity:1;stroke-miterlimit:4;" d="M 254.017409 -115.759477 C 335.842929 -115.759477 402.169928 -49.432478 402.169928 32.434704 C 402.169928 114.260224 335.842929 180.587223 254.017409 180.587223 C 172.150227 180.587223 105.823228 114.260224 105.823228 32.434704 C 105.823228 -49.432478 172.150227 -115.759477 254.017409 -115.759477 Z M 254.017409 -115.759477 " transform="matrix(0.093759,0,0,0.093759,0,20.158175)"/>
</g>
</svg>
